public/library/marinade-icon-light.svg

<svg width="400" height="222" viewBox="0 0 400 222" fill="none" xmlns="http://www.w3.org/2000/svg">
<path d="M289.181 30.4463C289.181 12.5187 273.948 0 252.142 0C234.411 0 222.191 8.76619 208.039 18.9179C205.671 20.6143 203.224 22.3729 200.7 24.1226C193.42 29.1673 185.854 34.0878 178.952 38.4353C178.262 38.8705 177.403 38.9283 176.664 38.5908C171.173 36.0906 160.296 32.085 146.923 32.085C117.23 32.085 111 48.4139 111 62.1138C111 72.9939 117.529 82.0531 129.874 88.3103C133.67 90.2331 137.448 91.6009 140.528 92.5335C142.922 93.2618 144.822 95.0781 145.628 97.4406C146.433 99.8031 147.386 102.334 148.565 104.937C149.869 107.814 151.427 110.972 153.184 114.325C155.067 117.904 158.792 120 162.641 120C164.03 120 165.436 119.729 166.776 119.156C186.508 110.732 217.442 100.238 252.769 98.0801C258.906 97.7026 263.561 92.6001 263.37 86.4584C263.281 83.5852 263.134 80.9074 262.938 78.5049C262.791 76.7019 262.595 74.9212 262.391 73.2781C262.003 70.1606 263.241 67.0654 265.679 65.0803C268.118 63.0953 270.917 60.6795 273.766 57.8906C283.997 47.8766 289.186 38.6441 289.186 30.4463H289.181ZM167.675 108.214C166.727 108.592 165.712 108.809 164.693 108.734C162.214 108.547 159.958 107.006 158.943 104.617C158.405 103.347 157.897 102.121 157.368 100.962C156.251 98.4975 155.321 95.9707 154.609 93.8302C153.923 91.7652 154.853 89.5093 156.807 88.5501C161.168 86.4052 168.262 83.8028 175.124 81.991C175.788 81.8178 176.366 81.387 176.673 80.7786C179.188 75.8227 175.151 71.9503 171.315 73.0161C171.07 73.0827 165.231 74.6991 159.148 77.035C155.539 78.4205 152.642 79.7306 150.363 81.0362C147.039 82.9413 143.06 83.341 139.469 81.9954C131.222 78.9046 120.662 72.8473 120.662 62.1227C120.662 52.6371 123.643 41.7526 146.905 41.7526C152.655 41.7526 157.902 42.6319 162.294 43.7732C164.408 44.3239 164.809 47.1482 162.931 48.2718C156.963 51.8466 153.118 54.0448 153.02 54.1026C150.701 55.4259 149.896 58.3791 151.222 60.6928C152.548 63.0064 155.508 63.8102 157.826 62.4869C157.982 62.398 167.706 56.8337 180.465 48.8891C180.532 48.8491 180.598 48.8047 180.665 48.7647C188.547 43.8576 197.563 38.049 206.197 32.0716C208.787 30.2776 211.27 28.4968 213.669 26.7782C226.988 17.226 237.509 9.67656 252.124 9.67656C268.492 9.67656 279.489 18.0298 279.489 30.4641C279.489 39.4878 267.468 51.1894 259.146 57.935C256.868 59.7824 253.922 60.5729 251.007 60.1998C250.17 60.0933 249.329 60 248.488 59.9201C246.712 59.7558 245.689 57.8284 246.547 56.2653C250.704 48.7292 252.449 44.0885 252.547 43.8265C253.472 41.3263 252.199 38.5553 249.694 37.6271C247.193 36.6946 244.407 37.9691 243.472 40.4648C243.446 40.5403 240.718 47.7256 233.886 58.7432C233.472 59.4094 232.76 59.8401 231.973 59.9023C230.277 60.0355 228.973 58.4413 229.427 56.8115C230.62 52.535 230.825 50.5766 230.851 50.2613C231.078 47.6057 229.111 45.2343 226.445 45.0078C223.771 44.7857 221.439 46.7175 221.212 49.3775C221.212 49.4131 220.834 52.5883 218.159 60.4308C217.87 61.2834 217.135 61.9229 216.25 62.1005C210.015 63.3262 205.845 64.5652 205.404 64.6984C202.845 65.4711 201.399 68.1622 202.173 70.7157C202.943 73.2648 205.64 74.7169 208.204 73.9442C208.319 73.9087 213.281 72.4432 220.495 71.1554L220.718 71.1243C221.141 71.0887 223.33 70.6802 223.428 70.6624C230.339 69.5833 238.768 68.8106 246.908 69.4812C249.983 69.7343 252.471 72.0835 252.84 75.1388C253 76.4799 253.147 77.8921 253.267 79.3132C253.374 80.6099 253.463 81.9954 253.539 83.4565C253.615 84.9175 253.21 88.1149 249.903 88.2703C246.979 88.408 234.18 88.4746 208.564 94.5985C189.018 99.2702 171.586 106.669 167.661 108.236L167.675 108.214Z" fill="black"/>
<path d="M262.479 212.15C254.117 212.15 248.351 204.958 248.351 194.696C248.351 184.435 254.215 177.434 262.671 177.434C271.126 177.434 276.705 184.435 276.705 194.501C276.705 204.567 270.841 212.145 262.479 212.145V212.15ZM260.364 221.74C266.228 221.74 270.65 219.057 274.011 214.451C274.492 213.78 274.973 213.491 275.454 213.491C276.126 213.491 276.705 214.162 276.705 215.41V217.902C276.705 219.342 277.667 220.301 279.11 220.301H285.646C287.182 220.301 288.051 219.439 288.051 217.902V171.872C288.051 170.34 287.187 169.474 285.646 169.474H279.11C277.574 169.474 276.705 170.335 276.705 171.872V172.734C276.705 173.982 276.224 174.746 275.552 174.746C275.071 174.746 274.59 174.458 274.016 173.787C270.458 169.758 265.556 167.937 259.981 167.937C246.427 167.937 236.721 178.869 236.721 194.594C236.721 210.32 246.619 221.732 260.364 221.732V221.74ZM2.38664 220.301H9.11458C10.4593 220.301 11.519 219.248 11.519 217.902V183.671C11.519 181.85 12.2893 180.89 13.2511 180.89C14.0214 180.89 14.7872 181.468 15.3661 182.902L28.2476 215.41C29.4988 218.671 31.8053 220.301 35.265 220.301C38.7247 220.301 40.9376 218.671 42.1844 215.41L55.0659 182.809C55.6447 181.37 56.4106 180.797 57.1809 180.797C58.1427 180.797 58.913 181.756 58.913 183.578V217.907C58.913 219.248 59.9683 220.306 61.3174 220.306H68.0453C69.39 220.306 70.4498 219.253 70.4498 217.907V161.331C70.4498 156.058 67.8539 153.18 63.143 153.18C58.4321 153.18 55.4533 155.29 53.7257 159.603L35.2694 206.495L16.7197 159.603C14.9876 155.29 12.0088 153.18 7.30235 153.18H7.11089C2.49795 153.18 0 156.058 0 161.331V217.907C0 219.248 1.05529 220.306 2.40444 220.306L2.38664 220.301ZM101.485 212.15C93.1227 212.15 87.3565 204.958 87.3565 194.696C87.3565 184.435 93.2206 177.434 101.676 177.434C110.132 177.434 115.711 184.435 115.711 194.501C115.711 204.567 109.847 212.145 101.485 212.145V212.15ZM99.3697 221.74C105.234 221.74 109.655 219.057 113.017 214.451C113.498 213.78 113.979 213.491 114.46 213.491C115.132 213.491 115.711 214.162 115.711 215.41V217.902C115.711 219.342 116.673 220.301 118.115 220.301H124.652C126.188 220.301 127.056 219.439 127.056 217.902V171.872C127.056 170.34 126.192 169.474 124.652 169.474H118.115C116.579 169.474 115.711 170.335 115.711 171.872V172.734C115.711 173.982 115.23 174.746 114.558 174.746C114.077 174.746 113.596 174.458 113.022 173.787C109.464 169.758 104.561 167.937 98.9868 167.937C85.4329 167.937 75.7262 178.869 75.7262 194.594C75.7262 210.32 85.6244 221.732 99.3697 221.732V221.74ZM319.09 212.15C310.728 212.15 304.962 204.958 304.962 194.696C304.962 184.435 310.826 177.434 319.281 177.434C327.737 177.434 333.316 184.435 333.316 194.501C333.316 204.567 327.452 212.145 319.09 212.145V212.15ZM316.975 221.74C322.839 221.74 327.261 219.057 330.622 214.451C331.103 213.78 331.584 213.491 332.065 213.491C332.737 213.491 333.316 214.162 333.316 215.41V217.902C333.316 219.342 334.278 220.301 335.721 220.301H342.257C343.793 220.301 344.662 219.439 344.662 217.902V150.776C344.662 149.244 343.798 148.378 342.257 148.378H335.721C334.185 148.378 333.316 149.239 333.316 150.776V172.734C333.316 173.982 332.835 174.746 332.163 174.746C331.682 174.746 331.201 174.458 330.627 173.787C327.069 169.758 322.167 167.937 316.592 167.937C303.038 167.937 293.331 178.869 293.331 194.594C293.331 210.32 303.23 221.732 316.975 221.732V221.74ZM385.029 189.232H364.654C363.309 189.232 362.445 188.562 362.445 187.504C362.445 187.216 362.445 186.834 362.637 186.452C364.845 180.89 369.365 177.532 375.229 177.532C381.093 177.532 385.127 180.89 387.051 186.545C387.149 186.927 387.242 187.216 387.242 187.504C387.242 188.557 386.378 189.232 385.034 189.232H385.029ZM376.186 221.74C387.238 221.74 395.315 216.179 398.583 206.784C398.681 206.402 398.775 206.113 398.775 205.824C398.775 204.771 398.294 204.194 396.949 204.194H390.123C388.778 204.194 388.106 204.771 387.527 206.015C385.412 209.946 381.374 212.154 376.28 212.154C368.492 212.154 363.207 207.263 361.671 199.783C361.288 198.152 362.25 197.193 363.879 197.193H397.136C398.672 197.193 399.54 196.331 399.54 194.794V194.505C399.54 178.011 389.642 167.945 375.225 167.945C360.807 167.945 349.947 178.3 349.947 195.083C349.947 210.617 360.615 221.74 376.186 221.74ZM188.565 220.301H195.102C196.638 220.301 197.506 219.439 197.506 217.902V189.806C197.506 183.191 202.6 177.82 210 177.82C216.345 177.82 220.094 181.561 220.094 187.216V217.902C220.094 219.435 220.958 220.301 222.499 220.301H229.035C230.571 220.301 231.44 219.439 231.44 217.902V186.643C231.44 175.231 224.52 167.945 214.426 167.945C207.409 167.945 203.851 170.344 200.298 173.889C199.626 174.56 199.047 174.849 198.566 174.849C197.893 174.849 197.511 174.271 197.511 173.121V171.681C197.511 170.149 196.455 169.478 195.013 169.478H188.574C187.038 169.478 186.17 170.34 186.17 171.877V217.907C186.17 219.439 187.033 220.306 188.574 220.306L188.565 220.301ZM170.688 220.301H177.224C178.76 220.301 179.629 219.439 179.629 217.902V171.872C179.629 170.34 178.765 169.474 177.224 169.474H170.688C169.152 169.474 168.283 170.335 168.283 171.872V217.902C168.283 219.435 169.147 220.301 170.688 220.301ZM173.956 162.673C178.186 162.673 181.263 159.412 181.263 155.29C181.263 151.167 178.186 148 173.956 148C169.726 148 166.649 151.163 166.649 155.29C166.649 159.416 169.819 162.673 173.956 162.673ZM135.988 220.301H142.525C144.061 220.301 144.929 219.439 144.929 217.902V194.026C144.929 184.533 149.449 179.931 161.462 179.931C162.713 179.931 163.385 179.069 163.385 177.532V171.299C163.385 169.767 162.713 168.901 161.462 168.901C155.117 168.901 151.176 170.34 147.623 174.942C147.044 175.71 146.47 176.092 145.989 176.092C145.317 176.092 144.934 175.515 144.934 174.364V171.681C144.934 170.149 143.878 169.478 142.436 169.478H135.997C134.461 169.478 133.593 170.34 133.593 171.877V217.907C133.593 219.439 134.457 220.306 135.997 220.306L135.988 220.301Z" fill="black"/>
<path d="M9.11458 220.301H2.38664L2.40444 220.306C1.05529 220.306 0 219.248 0 217.907V161.331C0 156.058 2.49795 153.18 7.11089 153.18H7.30235C12.0088 153.18 14.9876 155.29 16.7197 159.603L35.2694 206.495L53.7257 159.603C55.4533 155.29 58.4321 153.18 63.143 153.18C67.8539 153.18 70.4498 156.058 70.4498 161.331V217.907C70.4498 219.253 69.39 220.306 68.0453 220.306H61.3174C59.9683 220.306 58.913 219.248 58.913 217.907V183.578C58.913 181.756 58.1427 180.797 57.1809 180.797C56.4106 180.797 55.6447 181.37 55.0659 182.809L42.1844 215.41C40.9376 218.671 38.7247 220.301 35.265 220.301C31.8053 220.301 29.4988 218.671 28.2476 215.41L15.3661 182.902C14.7872 181.468 14.0214 180.89 13.2511 180.89C12.2893 180.89 11.519 181.85 11.519 183.671V217.902C11.519 219.248 10.4593 220.301 9.11458 220.301Z" fill="black"/>
</svg>

<svg xmlns="http://www.w3.org/2000/svg" width="400" height="222" fill="none" viewBox="0 0 400 222"><path fill="#000" d="M289.181 30.446C289.181 12.52 273.948 0 252.142 0c-17.731 0-29.951 8.766-44.103 18.918-2.368 1.696-4.815 3.455-7.339 5.205-7.28 5.044-14.846 9.965-21.748 14.312a2.41 2.41 0 0 1-2.288.156c-5.491-2.5-16.368-6.506-29.741-6.506C117.23 32.085 111 48.414 111 62.114c0 10.88 6.529 19.94 18.874 26.196 3.796 1.923 7.574 3.29 10.654 4.224a7.76 7.76 0 0 1 5.1 4.907c.805 2.362 1.758 4.893 2.937 7.496 1.304 2.877 2.862 6.035 4.619 9.388 1.883 3.579 5.608 5.675 9.457 5.675 1.389 0 2.795-.271 4.135-.844 19.732-8.424 50.666-18.918 85.993-21.076a11.24 11.24 0 0 0 10.601-11.622 160 160 0 0 0-.432-7.953 126 126 0 0 0-.547-5.227 9.11 9.11 0 0 1 3.288-8.198c2.439-1.985 5.238-4.4 8.087-7.19 10.231-10.013 15.42-19.246 15.42-27.444zm-121.506 77.768c-.948.378-1.963.595-2.982.52a6.8 6.8 0 0 1-5.75-4.117c-.538-1.27-1.046-2.496-1.575-3.655-1.117-2.465-2.047-4.991-2.759-7.132a4.346 4.346 0 0 1 2.198-5.28c4.361-2.145 11.455-4.747 18.317-6.559.664-.173 1.242-.604 1.549-1.212 2.515-4.956-1.522-8.829-5.358-7.763-.245.067-6.084 1.683-12.167 4.019-3.609 1.386-6.506 2.696-8.785 4.001-3.324 1.905-7.303 2.305-10.894.96-8.247-3.091-18.807-9.149-18.807-19.873 0-9.486 2.981-20.37 26.243-20.37 5.75 0 10.997.879 15.389 2.02 2.114.55 2.515 3.375.637 4.499-5.968 3.575-9.813 5.773-9.911 5.83a4.826 4.826 0 0 0-1.798 6.59 4.85 4.85 0 0 0 6.604 1.795c.156-.089 9.88-5.653 22.639-13.598q.1-.062.2-.124c7.882-4.907 16.898-10.716 25.532-16.693 2.59-1.794 5.073-3.575 7.472-5.294 13.319-9.552 23.84-17.101 38.455-17.101 16.368 0 27.365 8.353 27.365 20.787 0 9.024-12.021 20.725-20.343 27.471-2.278 1.847-5.224 2.638-8.139 2.265q-1.256-.16-2.519-.28a2.473 2.473 0 0 1-1.941-3.655c4.157-7.536 5.902-12.176 6-12.438a4.82 4.82 0 0 0-2.853-6.2 4.843 4.843 0 0 0-6.222 2.838c-.026.075-2.754 7.26-9.586 18.278a2.48 2.48 0 0 1-1.913 1.16 2.444 2.444 0 0 1-2.546-3.091c1.193-4.277 1.398-6.235 1.424-6.55.227-2.656-1.74-5.028-4.406-5.254-2.674-.222-5.006 1.71-5.233 4.37 0 .035-.378 3.21-3.053 11.053a2.55 2.55 0 0 1-1.909 1.67c-6.235 1.225-10.405 2.464-10.846 2.597a4.823 4.823 0 0 0-3.231 6.018 4.84 4.84 0 0 0 6.031 3.228c.115-.035 5.077-1.5 12.291-2.789l.223-.03c.423-.036 2.612-.445 2.71-.463 6.911-1.079 15.34-1.851 23.48-1.18 3.075.252 5.563 2.602 5.932 5.657.16 1.34.307 2.753.427 4.174.107 1.297.196 2.682.272 4.144.076 1.46-.329 4.658-3.636 4.813-2.924.138-15.723.205-41.339 6.329-19.546 4.671-36.978 12.07-40.903 13.637zM262.479 212.15c-8.362 0-14.128-7.192-14.128-17.454 0-10.261 5.864-17.262 14.32-17.262s14.034 7.001 14.034 17.067-5.864 17.644-14.226 17.644zm-2.115 9.59c5.864 0 10.286-2.683 13.647-7.289.481-.671.962-.96 1.443-.96.672 0 1.251.671 1.251 1.919v2.492c0 1.44.962 2.399 2.405 2.399h6.536c1.536 0 2.405-.862 2.405-2.399v-46.03c0-1.532-.864-2.398-2.405-2.398h-6.536c-1.536 0-2.405.861-2.405 2.398v.862c0 1.248-.481 2.012-1.153 2.012-.481 0-.962-.288-1.536-.959-3.558-4.029-8.46-5.85-14.035-5.85-13.554 0-23.26 10.932-23.26 26.657 0 15.726 9.898 27.138 23.643 27.138zM2.387 220.301h6.728a2.38 2.38 0 0 0 2.404-2.399v-34.231c0-1.821.77-2.781 1.732-2.781.77 0 1.536.578 2.115 2.012l12.882 32.508c1.25 3.261 3.557 4.891 7.017 4.891s5.673-1.63 6.92-4.891l12.88-32.601c.58-1.439 1.346-2.012 2.116-2.012.962 0 1.732.959 1.732 2.781v34.329a2.38 2.38 0 0 0 2.404 2.399h6.728a2.38 2.38 0 0 0 2.405-2.399v-56.576c0-5.273-2.596-8.151-7.307-8.151-4.71 0-7.69 2.11-9.417 6.423l-18.457 46.892-18.55-46.892c-1.731-4.313-4.71-6.423-9.417-6.423h-.191c-4.613 0-7.111 2.878-7.111 8.151v56.576a2.38 2.38 0 0 0 2.404 2.399zm99.098-8.151c-8.362 0-14.129-7.192-14.129-17.454 0-10.261 5.865-17.262 14.32-17.262s14.035 7.001 14.035 17.067-5.864 17.644-14.226 17.644zm-2.115 9.59c5.864 0 10.285-2.683 13.647-7.289.481-.671.962-.96 1.443-.96.672 0 1.251.671 1.251 1.919v2.492c0 1.44.962 2.399 2.404 2.399h6.537c1.536 0 2.404-.862 2.404-2.399v-46.03c0-1.532-.864-2.398-2.404-2.398h-6.537c-1.536 0-2.404.861-2.404 2.398v.862c0 1.248-.481 2.012-1.153 2.012-.481 0-.962-.288-1.536-.959-3.558-4.029-8.461-5.85-14.035-5.85-13.554 0-23.26 10.932-23.26 26.657 0 15.726 9.897 27.138 23.643 27.138zm219.72-9.59c-8.362 0-14.128-7.192-14.128-17.454 0-10.261 5.864-17.262 14.319-17.262s14.035 7.001 14.035 17.067-5.864 17.644-14.226 17.644zm-2.115 9.59c5.864 0 10.286-2.683 13.647-7.289.481-.671.962-.96 1.443-.96.672 0 1.251.671 1.251 1.919v2.492c0 1.44.962 2.399 2.405 2.399h6.536c1.536 0 2.405-.862 2.405-2.399v-67.126c0-1.532-.864-2.398-2.405-2.398h-6.536c-1.536 0-2.405.861-2.405 2.398v21.958c0 1.248-.481 2.012-1.153 2.012-.481 0-.962-.288-1.536-.959-3.558-4.029-8.46-5.85-14.035-5.85-13.554 0-23.261 10.932-23.261 26.657 0 15.726 9.899 27.138 23.644 27.138zm68.054-32.508h-20.375c-1.345 0-2.209-.67-2.209-1.728 0-.288 0-.67.192-1.052 2.208-5.562 6.728-8.92 12.592-8.92s9.898 3.358 11.822 9.013c.098.382.191.671.191.959 0 1.053-.864 1.728-2.208 1.728zm-8.843 32.508c11.052 0 19.129-5.561 22.397-14.956.098-.382.192-.671.192-.96 0-1.053-.481-1.63-1.826-1.63h-6.826c-1.345 0-2.017.577-2.596 1.821-2.115 3.931-6.153 6.139-11.247 6.139-7.788 0-13.073-4.891-14.609-12.371-.383-1.631.579-2.59 2.208-2.59h33.257c1.536 0 2.404-.862 2.404-2.399v-.289c0-16.494-9.898-26.56-24.315-26.56s-25.278 10.355-25.278 27.138c0 15.534 10.668 26.657 26.239 26.657m-187.621-1.439h6.537c1.536 0 2.404-.862 2.404-2.399v-28.096c0-6.615 5.094-11.986 12.494-11.986 6.345 0 10.094 3.741 10.094 9.396v30.686c0 1.533.864 2.399 2.405 2.399h6.536c1.536 0 2.405-.862 2.405-2.399v-31.259c0-11.412-6.92-18.698-17.014-18.698-7.017 0-10.575 2.399-14.128 5.944-.672.671-1.251.96-1.732.96-.673 0-1.055-.578-1.055-1.728v-1.44c0-1.532-1.056-2.203-2.498-2.203h-6.439c-1.536 0-2.404.862-2.404 2.399v46.03c0 1.532.863 2.399 2.404 2.399zm-17.877 0h6.536c1.536 0 2.405-.862 2.405-2.399v-46.03c0-1.532-.864-2.398-2.405-2.398h-6.536c-1.536 0-2.405.861-2.405 2.398v46.03c0 1.533.864 2.399 2.405 2.399m3.268-57.628c4.23 0 7.307-3.261 7.307-7.383 0-4.123-3.077-7.29-7.307-7.29s-7.307 3.163-7.307 7.29c0 4.126 3.17 7.383 7.307 7.383m-37.968 57.628h6.537c1.536 0 2.404-.862 2.404-2.399v-23.876c0-9.493 4.52-14.095 16.533-14.095 1.251 0 1.923-.862 1.923-2.399v-6.233c0-1.532-.672-2.398-1.923-2.398-6.345 0-10.286 1.439-13.839 6.041-.579.768-1.153 1.15-1.634 1.15-.672 0-1.055-.577-1.055-1.728v-2.683c0-1.532-1.056-2.203-2.498-2.203h-6.439c-1.536 0-2.404.862-2.404 2.399v46.03c0 1.532.864 2.399 2.404 2.399z"/><path fill="#000" d="M9.115 220.301H2.387l.017.005A2.38 2.38 0 0 1 0 217.907v-56.576c0-5.273 2.498-8.151 7.11-8.151h.192c4.707 0 7.686 2.11 9.418 6.423l18.55 46.892 18.456-46.892c1.727-4.313 4.706-6.423 9.417-6.423s7.307 2.878 7.307 8.151v56.576a2.38 2.38 0 0 1-2.405 2.399h-6.728a2.38 2.38 0 0 1-2.404-2.399v-34.329c0-1.822-.77-2.781-1.732-2.781-.77 0-1.536.573-2.115 2.012L42.184 215.41c-1.246 3.261-3.46 4.891-6.919 4.891-3.46 0-5.766-1.63-7.017-4.891l-12.882-32.508c-.579-1.434-1.345-2.012-2.115-2.012-.962 0-1.732.96-1.732 2.781v34.231a2.38 2.38 0 0 1-2.404 2.399"/></svg>
